img/svg/partners/logo/logoipsum1.svg

<svg width="102" height="102" viewBox="0 0 102 102" fill="none" xmlns="http://www.w3.org/2000/svg">
<circle cx="51" cy="51" r="51" fill="#252532" fill-opacity="0.8"/>
<circle cx="51" cy="51" r="50.5" stroke="url(#paint0_linear_43_1751)" stroke-opacity="0.3"/>
<g clip-path="url(#clip0_43_1751)">
<path d="M11.4537 55.8327L11.4537 45.9443L16.3042 48.6911V53.1134L20.1846 55.3383L24.0649 53.1134V48.6911L28.9154 45.9443V55.8327L20.1846 60.7768L11.4537 55.8327Z" fill="#D1D1D1"/>
<path fill-rule="evenodd" clip-rule="evenodd" d="M13.879 47.3176L11.4537 45.9442L20.1846 41L28.9154 45.9442L26.4902 47.3176V54.5965L20.1846 58.3046L13.879 54.5965L13.879 47.3176ZM26.2275 47.4664L24.0649 48.6909V48.6635L20.1846 46.4386L16.3042 48.6635V48.6909L14.1417 47.4664V54.4444L20.1846 57.998L26.2275 54.4444V47.4664Z" fill="#D1D1D1"/>
<path d="M33.5641 55.0513V46.7451H35.1007V53.6274H38.8259V55.0513H33.5641Z" fill="#D1D1D1"/>
<path d="M42.1435 55.2168C41.5692 55.2168 41.0531 55.0982 40.5953 54.8608C40.1374 54.6235 39.7765 54.2794 39.5126 53.8285C39.2487 53.3776 39.1168 52.8357 39.1168 52.2029V52.013C39.1168 51.3801 39.2487 50.8382 39.5126 50.3873C39.7765 49.9364 40.1374 49.5923 40.5953 49.355C41.0531 49.1177 41.5692 48.999 42.1435 48.999C42.7178 48.999 43.2339 49.1177 43.6918 49.355C44.1497 49.5923 44.5106 49.9364 44.7744 50.3873C45.0383 50.8382 45.1702 51.3801 45.1702 52.013V52.2029C45.1702 52.8357 45.0383 53.3776 44.7744 53.8285C44.5106 54.2794 44.1497 54.6235 43.6918 54.8608C43.2339 55.0982 42.7178 55.2168 42.1435 55.2168ZM42.1435 53.8878C42.5936 53.8878 42.9662 53.7415 43.2611 53.4488C43.556 53.1482 43.7034 52.721 43.7034 52.1672V52.0486C43.7034 51.4949 43.556 51.0716 43.2611 50.7789C42.9739 50.4783 42.6014 50.328 42.1435 50.328C41.6934 50.328 41.3209 50.4783 41.026 50.7789C40.7311 51.0716 40.5836 51.4949 40.5836 52.0486V52.1672C40.5836 52.721 40.7311 53.1482 41.026 53.4488C41.3209 53.7415 41.6934 53.8878 42.1435 53.8878Z" fill="#D1D1D1"/>
<path d="M45.7209 52.1317V51.9418C45.7209 51.3248 45.8412 50.7987 46.0818 50.3636C46.3224 49.9206 46.6406 49.5844 47.0364 49.355C47.4399 49.1177 47.8784 48.999 48.3518 48.999C48.8796 48.999 49.2792 49.094 49.5508 49.2838C49.8225 49.4737 50.0204 49.6714 50.1445 49.8771H50.3541V49.1651H51.7976V56.0949C51.7976 56.4983 51.6812 56.8187 51.4483 57.0561C51.2155 57.3013 50.9051 57.4239 50.5171 57.4239H46.6522V56.1187H50.0049C50.2221 56.1187 50.3308 56 50.3308 55.7627V54.2319H50.1212C50.0436 54.3585 49.935 54.489 49.7953 54.6235C49.6556 54.7501 49.4694 54.8569 49.2366 54.9439C49.0037 55.0309 48.7088 55.0744 48.3518 55.0744C47.8784 55.0744 47.4399 54.9597 47.0364 54.7303C46.6406 54.493 46.3224 54.1568 46.0818 53.7217C45.8412 53.2787 45.7209 52.7487 45.7209 52.1317ZM48.7709 53.7692C49.221 53.7692 49.5974 53.6228 49.9001 53.3301C50.2028 53.0374 50.3541 52.6261 50.3541 52.0961V51.9774C50.3541 51.4394 50.2028 51.0281 49.9001 50.7433C49.6052 50.4507 49.2288 50.3043 48.7709 50.3043C48.3208 50.3043 47.9444 50.4507 47.6417 50.7433C47.3391 51.0281 47.1877 51.4394 47.1877 51.9774V52.0961C47.1877 52.6261 47.3391 53.0374 47.6417 53.3301C47.9444 53.6228 48.3208 53.7692 48.7709 53.7692Z" fill="#D1D1D1"/>
<path d="M55.6473 55.2168C55.073 55.2168 54.5569 55.0982 54.099 54.8608C53.6411 54.6235 53.2802 54.2794 53.0164 53.8285C52.7525 53.3776 52.6206 52.8357 52.6206 52.2029V52.013C52.6206 51.3801 52.7525 50.8382 53.0164 50.3873C53.2802 49.9364 53.6411 49.5923 54.099 49.355C54.5569 49.1177 55.073 48.999 55.6473 48.999C56.2216 48.999 56.7376 49.1177 57.1955 49.355C57.6534 49.5923 58.0143 49.9364 58.2781 50.3873C58.542 50.8382 58.674 51.3801 58.674 52.013V52.2029C58.674 52.8357 58.542 53.3776 58.2781 53.8285C58.0143 54.2794 57.6534 54.6235 57.1955 54.8608C56.7376 55.0982 56.2216 55.2168 55.6473 55.2168ZM55.6473 53.8878C56.0974 53.8878 56.4699 53.7415 56.7648 53.4488C57.0597 53.1482 57.2072 52.721 57.2072 52.1672V52.0486C57.2072 51.4949 57.0597 51.0716 56.7648 50.7789C56.4777 50.4783 56.1052 50.328 55.6473 50.328C55.1971 50.328 54.8247 50.4783 54.5297 50.7789C54.2348 51.0716 54.0874 51.4949 54.0874 52.0486V52.1672C54.0874 52.721 54.2348 53.1482 54.5297 53.4488C54.8247 53.7415 55.1971 53.8878 55.6473 53.8878Z" fill="#D1D1D1"/>
<path d="M59.504 55.0515V49.1659H60.9707V55.0515H59.504ZM60.2373 48.4777C59.9735 48.4777 59.7484 48.3907 59.5622 48.2166C59.3837 48.0426 59.2944 47.8132 59.2944 47.5284C59.2944 47.2436 59.3837 47.0142 59.5622 46.8402C59.7484 46.6662 59.9735 46.5791 60.2373 46.5791C60.509 46.5791 60.734 46.6662 60.9125 46.8402C61.091 47.0142 61.1803 47.2436 61.1803 47.5284C61.1803 47.8132 61.091 48.0426 60.9125 48.2166C60.734 48.3907 60.509 48.4777 60.2373 48.4777Z" fill="#D1D1D1"/>
<path d="M62.0723 57.4239V49.1651H63.5158V49.8771H63.7255C63.8571 49.6477 64.0627 49.446 64.3425 49.2719C64.6218 49.09 65.0215 48.999 65.5414 48.999C66.0072 48.999 66.4378 49.1177 66.8333 49.355C67.2294 49.5844 67.5474 49.9245 67.788 50.3755C68.0287 50.8264 68.149 51.3722 68.149 52.013V52.2029C68.149 52.8436 68.0287 53.3894 67.788 53.8403C67.5474 54.2913 67.2294 54.6354 66.8333 54.8727C66.4378 55.1021 66.0072 55.2168 65.5414 55.2168C65.1919 55.2168 64.8971 55.1733 64.6564 55.0863C64.4236 55.0072 64.2336 54.9043 64.0864 54.7778C63.9465 54.6433 63.8339 54.5088 63.7487 54.3743H63.5391V57.4239H62.0723ZM65.0989 53.9116C65.5569 53.9116 65.9334 53.7652 66.2282 53.4725C66.5308 53.1719 66.682 52.7368 66.682 52.1672V52.0486C66.682 51.479 66.5308 51.0479 66.2282 50.7552C65.9256 50.4546 65.5492 50.3043 65.0989 50.3043C64.6487 50.3043 64.2723 50.4546 63.9697 50.7552C63.6671 51.0479 63.5158 51.479 63.5158 52.0486V52.1672C63.5158 52.7368 63.6671 53.1719 63.9697 53.4725C64.2723 53.7652 64.6487 53.9116 65.0989 53.9116Z" fill="#D1D1D1"/>
<path d="M71.37 55.2168C70.6171 55.2168 70.0001 55.0507 69.5189 54.7184C69.0382 54.3862 68.747 53.9115 68.6458 53.2945L69.9965 52.9385C70.0507 53.2154 70.14 53.433 70.264 53.5912C70.3961 53.7494 70.5552 53.8641 70.7416 53.9353C70.9352 53.9985 71.1448 54.0302 71.37 54.0302C71.7113 54.0302 71.9638 53.9709 72.1269 53.8522C72.2896 53.7257 72.3711 53.5714 72.3711 53.3894C72.3711 53.2075 72.2937 53.0691 72.1383 52.9741C71.9834 52.8713 71.735 52.7882 71.3932 52.725L71.0674 52.6656C70.6636 52.5865 70.2949 52.4797 69.9614 52.3452C69.6278 52.2029 69.3599 52.009 69.158 51.7638C68.9566 51.5185 68.8554 51.2021 68.8554 50.8145C68.8554 50.2291 69.065 49.7822 69.4843 49.4737C69.903 49.1572 70.4545 48.999 71.1371 48.999C71.7815 48.999 72.3169 49.1454 72.7434 49.4381C73.1704 49.7308 73.4498 50.1144 73.582 50.5891L72.2199 51.0162C72.1579 50.7157 72.0298 50.502 71.8357 50.3755C71.6493 50.2489 71.4164 50.1856 71.1371 50.1856C70.8578 50.1856 70.6445 50.237 70.4968 50.3399C70.3497 50.4348 70.2758 50.5693 70.2758 50.7433C70.2758 50.9332 70.3533 51.0755 70.5087 51.1705C70.6636 51.2575 70.8732 51.3248 71.1371 51.3722L71.4629 51.4315C71.8977 51.5107 72.2896 51.6174 72.6391 51.7519C72.9959 51.8785 73.2753 52.0644 73.4771 52.3097C73.6868 52.547 73.7916 52.8713 73.7916 53.2827C73.7916 53.8997 73.5701 54.3783 73.1276 54.7184C72.6933 55.0507 72.1073 55.2168 71.37 55.2168Z" fill="#D1D1D1"/>
<path d="M76.7528 55.1455C76.3031 55.1455 75.9071 55.0427 75.5658 54.837C75.2322 54.6234 74.972 54.3307 74.7856 53.9589C74.5997 53.5871 74.5062 53.1599 74.5062 52.6774V49.165H75.9731V52.5587C75.9731 53.0017 76.078 53.334 76.2876 53.5555C76.5045 53.777 76.8112 53.8877 77.2072 53.8877C77.6569 53.8877 78.0065 53.7374 78.2549 53.4368C78.5032 53.1283 78.6271 52.7011 78.6271 52.1553V49.165H80.0941V55.0506H78.6504V54.2793H78.4413C78.3478 54.4771 78.1733 54.6709 77.9172 54.8607C77.6611 55.0506 77.2728 55.1455 76.7528 55.1455Z" fill="#D1D1D1"/>
<path d="M81.2026 55.0508V49.1652H82.6458V49.806H82.8554C82.9561 49.6082 83.1234 49.4382 83.3558 49.2957C83.5886 49.1455 83.8953 49.0703 84.2759 49.0703C84.6869 49.0703 85.0168 49.1534 85.2652 49.3195C85.5136 49.4777 85.7036 49.6873 85.8358 49.9484H86.0449C86.1771 49.6953 86.3635 49.4856 86.6041 49.3195C86.8447 49.1534 87.186 49.0703 87.6285 49.0703C87.9853 49.0703 88.3075 49.1494 88.5946 49.3076C88.8894 49.4579 89.1223 49.6913 89.2932 50.0077C89.4713 50.3162 89.5606 50.7078 89.5606 51.1825V55.0508H88.0937V51.2893C88.0937 50.9649 88.0126 50.7236 87.8495 50.5654C87.6863 50.3993 87.4576 50.3162 87.1627 50.3162C86.8292 50.3162 86.569 50.427 86.3826 50.6485C86.2044 50.862 86.1151 51.1706 86.1151 51.574V55.0508H84.6482V51.2893C84.6482 50.9649 84.5666 50.7236 84.4039 50.5654C84.2408 50.3993 84.012 50.3162 83.7167 50.3162C83.3831 50.3162 83.1234 50.427 82.937 50.6485C82.7584 50.862 82.669 51.1706 82.669 51.574V55.0508H81.2026Z" fill="#D1D1D1"/>
</g>
<defs>
<linearGradient id="paint0_linear_43_1751" x1="-1.07003e-06" y1="-3.68497" x2="110.285" y2="5.81496" gradientUnits="userSpaceOnUse">
<stop offset="0" stop-color="white"/>
<stop offset="1" stop-color="white" stop-opacity="0"/>
</linearGradient>
<clipPath id="clip0_43_1751">
<rect width="79" height="20" fill="white" transform="translate(11 41)"/>
</clipPath>
</defs>
</svg>

<svg width="102" height="102" fill="none" xmlns="http://www.w3.org/2000/svg"><circle cx="51" cy="51" r="51" fill="#252532" fill-opacity=".8"/><circle cx="51" cy="51" r="50.5" stroke="url(#a)" stroke-opacity=".3"/><g clip-path="url(#b)" fill="#D1D1D1"><path d="M11.454 55.833v-9.889l4.85 2.747v4.422l3.88 2.225 3.88-2.225v-4.422l4.851-2.747v9.889l-8.73 4.944-8.731-4.944Z"/><path fill-rule="evenodd" clip-rule="evenodd" d="m13.879 47.318-2.425-1.374L20.184 41l8.731 4.944-2.425 1.374v7.279l-6.305 3.708-6.306-3.709v-7.278Zm12.348.148-2.162 1.225v-.028l-3.88-2.224-3.88 2.224v.028l-2.163-1.225v6.978l6.043 3.554 6.043-3.554v-6.978Z"/><path d="M33.564 55.051v-8.306h1.537v6.882h3.725v1.424h-5.262ZM42.144 55.217c-.575 0-1.09-.119-1.549-.356a2.64 2.64 0 0 1-1.082-1.032c-.264-.451-.396-.993-.396-1.626v-.19c0-.633.132-1.175.396-1.626a2.64 2.64 0 0 1 1.082-1.032 3.314 3.314 0 0 1 1.549-.356c.574 0 1.09.119 1.548.356a2.64 2.64 0 0 1 1.082 1.032c.264.451.396.993.396 1.626v.19c0 .633-.132 1.175-.396 1.625a2.64 2.64 0 0 1-1.082 1.033 3.314 3.314 0 0 1-1.548.356Zm0-1.33c.45 0 .822-.145 1.117-.438.295-.3.442-.728.442-1.282v-.118c0-.554-.147-.977-.442-1.27-.287-.3-.66-.451-1.117-.451-.45 0-.823.15-1.118.45-.295.294-.442.717-.442 1.27v.12c0 .553.147.98.442 1.28.295.294.667.44 1.117.44ZM45.72 52.132v-.19c0-.617.121-1.143.362-1.578.24-.443.559-.78.954-1.009a2.55 2.55 0 0 1 1.316-.356c.528 0 .927.095 1.199.285.271.19.47.387.593.593h.21v-.712h1.444v6.93c0 .403-.117.724-.35.961-.233.245-.543.368-.93.368h-3.866v-1.305h3.353c.217 0 .326-.119.326-.356v-1.531h-.21a2.026 2.026 0 0 1-.326.392 1.72 1.72 0 0 1-.558.32c-.233.087-.528.13-.885.13-.474 0-.912-.114-1.316-.344a2.63 2.63 0 0 1-.954-1.008c-.24-.443-.361-.973-.361-1.59Zm3.05 1.637c.451 0 .827-.146 1.13-.439.303-.293.454-.704.454-1.234v-.119c0-.538-.151-.949-.454-1.234-.295-.292-.671-.439-1.13-.439-.45 0-.826.147-1.128.44-.303.284-.454.695-.454 1.233v.12c0 .53.151.94.454 1.233.302.293.679.44 1.129.44ZM55.647 55.217c-.574 0-1.09-.119-1.548-.356a2.64 2.64 0 0 1-1.083-1.032c-.264-.451-.395-.993-.395-1.626v-.19c0-.633.131-1.175.395-1.626a2.64 2.64 0 0 1 1.083-1.032 3.315 3.315 0 0 1 1.548-.356c.575 0 1.09.119 1.549.356a2.64 2.64 0 0 1 1.082 1.032c.264.451.396.993.396 1.626v.19c0 .633-.132 1.175-.396 1.625a2.64 2.64 0 0 1-1.082 1.033 3.313 3.313 0 0 1-1.549.356Zm0-1.33c.45 0 .823-.145 1.118-.438.295-.3.442-.728.442-1.282v-.118c0-.554-.147-.977-.442-1.27-.287-.3-.66-.451-1.118-.451-.45 0-.822.15-1.117.45-.295.294-.443.717-.443 1.27v.12c0 .553.148.98.443 1.28.295.294.667.44 1.117.44ZM59.504 55.051v-5.885h1.467v5.886h-1.467Zm.733-6.573a.953.953 0 0 1-.675-.261c-.178-.174-.268-.404-.268-.689 0-.284.09-.514.268-.688a.953.953 0 0 1 .675-.26c.272 0 .497.086.675.26.179.174.268.404.268.688 0 .285-.089.515-.267.689a.928.928 0 0 1-.676.26ZM62.072 57.424v-8.259h1.444v.712h.21c.131-.23.337-.431.617-.605.279-.182.678-.273 1.198-.273.466 0 .897.119 1.292.356.396.23.714.57.955 1.02.24.451.361.997.361 1.638v.19c0 .64-.12 1.186-.361 1.637-.24.451-.559.795-.955 1.033a2.53 2.53 0 0 1-1.292.344 2.62 2.62 0 0 1-.885-.13 1.708 1.708 0 0 1-.57-.31 2.202 2.202 0 0 1-.337-.403h-.21v3.05h-1.467Zm3.027-3.512c.458 0 .834-.147 1.13-.44.302-.3.453-.735.453-1.305v-.118c0-.57-.151-1.001-.454-1.294-.302-.3-.679-.45-1.13-.45-.45 0-.826.15-1.128.45-.303.293-.454.724-.454 1.294v.118c0 .57.151 1.005.454 1.305.302.293.679.44 1.129.44ZM71.37 55.217c-.753 0-1.37-.166-1.851-.499-.48-.332-.772-.807-.873-1.424l1.35-.355c.055.276.144.494.268.652.132.158.291.273.478.344.193.063.403.095.628.095.341 0 .594-.06.757-.178a.569.569 0 0 0 .244-.463.458.458 0 0 0-.233-.415c-.155-.103-.403-.186-.745-.249l-.326-.06a6.08 6.08 0 0 1-1.106-.32 2.07 2.07 0 0 1-.803-.581c-.201-.245-.303-.562-.303-.95 0-.585.21-1.032.63-1.34.418-.317.97-.475 1.652-.475.644 0 1.18.146 1.606.44.427.292.707.675.839 1.15l-1.362.427c-.062-.3-.19-.514-.384-.64-.187-.127-.42-.19-.699-.19-.28 0-.493.051-.64.154a.454.454 0 0 0-.221.403c0 .19.077.332.233.427.155.087.364.155.628.202l.326.06c.435.079.827.185 1.176.32.357.127.636.312.838.558.21.237.315.561.315.973 0 .617-.222 1.095-.664 1.435-.435.333-1.02.499-1.758.499ZM76.753 55.145c-.45 0-.846-.102-1.187-.308a2.178 2.178 0 0 1-.78-.878 2.829 2.829 0 0 1-.28-1.282v-3.512h1.467v3.394c0 .443.105.775.315.997.216.221.523.332.92.332.449 0 .799-.15 1.047-.451.248-.309.372-.736.372-1.282v-2.99h1.467v5.886H78.65v-.772h-.209c-.093.198-.268.392-.524.582-.256.19-.644.285-1.164.285ZM81.203 55.05v-5.885h1.443v.641h.21c.1-.198.267-.368.5-.51.233-.15.54-.226.92-.226.41 0 .74.083.99.25.248.158.438.367.57.628h.209c.132-.253.319-.462.56-.629.24-.166.581-.249 1.023-.249.357 0 .68.08.967.238.294.15.527.383.698.7.178.308.268.7.268 1.174v3.869h-1.467v-3.762c0-.324-.081-.565-.244-.724-.164-.166-.392-.249-.687-.249-.334 0-.594.111-.78.332-.179.214-.268.523-.268.926v3.477h-1.467v-3.762c0-.324-.081-.565-.244-.724-.163-.166-.392-.249-.687-.249-.334 0-.594.111-.78.332-.179.214-.268.523-.268.926v3.477h-1.466Z"/></g><defs><linearGradient id="a" x1="0" y1="-3.685" x2="110.285" y2="5.815" gradientUnits="userSpaceOnUse"><stop offset="0" stop-color="#fff"/><stop offset="1" stop-color="#fff" stop-opacity="0"/></linearGradient><clipPath id="b"><path fill="#fff" transform="translate(11 41)" d="M0 0h79v20H0z"/></clipPath></defs></svg>
